lib/flags/l/PHL.svg

<svg xmlns="http://www.w3.org/2000/svg" fill="none" viewBox="0 0 32 24"><mask id="PHL_svg__a" width="32" height="24" x="0" y="0" mask-type="alpha" maskUnits="userSpaceOnUse"><path fill="#fff" d="M0 0H32V24H0z"/></mask><g mask="url(#PHL_svg__a)"><path fill="#BF2714" fill-rule="evenodd" d="M0 0V24H32V0H0Z" clip-rule="evenodd"/><mask id="PHL_svg__b" width="32" height="24" x="0" y="0" mask-type="alpha" maskUnits="userSpaceOnUse"><path fill="#fff" fill-rule="evenodd" d="M0 0V24H32V0H0Z" clip-rule="evenodd"/></mask><g mask="url(#PHL_svg__b)"><path fill="#3D58DB" fill-rule="evenodd" d="M0 -2V12H32V-2H0Z" clip-rule="evenodd"/></g><path fill="#F7FCFF" fill-rule="evenodd" d="M0 0V24L18 12L0 0Z" clip-rule="evenodd"/><mask id="PHL_svg__c" width="18" height="24" x="0" y="0" mask-type="alpha" maskUnits="userSpaceOnUse"><path fill="#fff" fill-rule="evenodd" d="M0 0V24L18 12L0 0Z" clip-rule="evenodd"/></mask><g fill="#FECA00" fill-rule="evenodd" clip-rule="evenodd" mask="url(#PHL_svg__c)"><path d="M13.605 10.9203 14.8809 11.4123 15.64 10.519 15.6601 11.7137 16.8344 12.0957 15.5984 12.5152 15.6799 13.6131 14.8658 12.7721 13.5862 13.0155 14.3417 12.0468 13.605 10.9203zM1.60502 16.9203 2.77779 17.4388 3.64001 16.519 3.55703 17.7402 4.83441 18.0957 3.49529 18.5417 3.67986 19.6131 2.7475 18.8475 1.58616 19.0155 2.23854 18.0733 1.60502 16.9203zM1.60502 4.92026 2.90278 5.39848 3.64001 4.51896 3.68202 5.69991 4.83441 6.09566 3.62028 6.5014 3.67986 7.6131 2.87249 6.80723 1.58616 7.01548 2.36352 6.03303 1.60502 4.92026zM8.12146 14.5327C9.50217 14.5327 10.6215 13.4134 10.6215 12.0327 10.6215 10.652 9.50217 9.53271 8.12146 9.53271 6.74075 9.53271 5.62146 10.652 5.62146 12.0327 5.62146 13.4134 6.74075 14.5327 8.12146 14.5327z"/><path d="M7.82596 8.23965L7.9603 9.84565C7.97315 9.94317 8.04818 10.0209 8.14519 10.0371C8.26707 10.0575 8.3824 9.97525 8.40281 9.85338L8.58011 8.25282C8.58323 8.2342 8.58496 8.21539 8.58529 8.19652C8.58896 7.98595 8.42124 7.81227 8.21067 7.8086C8.19181 7.80827 8.17294 7.80934 8.15423 7.8118C7.94543 7.8393 7.79846 8.03086 7.82596 8.23965ZM7.40785 9.01582L7.61547 9.71445C7.63474 9.7793 7.69951 9.81946 7.77275 9.80654C7.8328 9.79235 7.86997 9.73218 7.85578 9.67213L7.69009 8.97098C7.67103 8.89035 7.59291 8.83814 7.51112 8.85137C7.50566 8.85226 7.50025 8.85349 7.49495 8.85507C7.42651 8.87541 7.38752 8.94738 7.40785 9.01582ZM8.53068 9.74356C8.5144 9.80307 8.54945 9.86451 8.6155 9.88236C8.68171 9.89625 8.74784 9.85838 8.76936 9.79424L9.00123 9.10328C9.02395 9.03559 8.98749 8.9623 8.9198 8.93959C8.91455 8.93783 8.9092 8.9364 8.90377 8.93533C8.82249 8.91924 8.74259 8.9687 8.72073 9.04862L8.53068 9.74356ZM10.6078 9.0414L9.49008 10.2756C9.4302 10.3536 9.42832 10.4616 9.48544 10.5417C9.55719 10.6423 9.69691 10.6657 9.79752 10.594L11.1317 9.58397C11.1471 9.57301 11.1616 9.56093 11.1752 9.54782C11.3267 9.40152 11.3309 9.16012 11.1846 9.00863C11.1715 8.99505 11.1574 8.98247 11.1424 8.97098C10.9754 8.84279 10.736 8.87431 10.6078 9.0414ZM10.2678 11.6613L11.9367 11.5322C12.1455 11.5047 12.3371 11.6516 12.3646 11.8604C12.367 11.8792 12.3681 11.898 12.3678 11.9169C12.3641 12.1275 12.1904 12.2952 11.9799 12.2915C11.961 12.2912 11.9422 12.2894 11.9236 12.2863L10.2601 12.1038C10.1382 12.0834 10.0559 11.9681 10.0763 11.8462C10.0926 11.7492 10.1703 11.6742 10.2678 11.6613ZM11.1339 14.3195L9.83782 13.1911C9.75978 13.1312 9.65179 13.1294 9.57171 13.1865C9.4711 13.2582 9.44771 13.398 9.51947 13.4986L10.5914 14.8435C10.6023 14.8588 10.6144 14.8734 10.6275 14.887C10.7738 15.0384 11.0152 15.0427 11.1667 14.8964C11.1803 14.8833 11.1929 14.8692 11.2044 14.8542C11.3326 14.6871 11.301 14.4477 11.1339 14.3195ZM8.45209 13.9688L8.55104 15.6538C8.57854 15.8626 8.43157 16.0542 8.22277 16.0817C8.20406 16.0842 8.1852 16.0852 8.16633 16.0849C7.95576 16.0812 7.78804 15.9075 7.79172 15.697C7.79205 15.6781 7.79378 15.6593 7.79689 15.6407L8.00958 13.9611C8.02998 13.8392 8.14532 13.757 8.2672 13.7774C8.36421 13.7936 8.43924 13.8713 8.45209 13.9688ZM5.82101 14.8791L6.92231 13.5389C6.98218 13.4608 6.98407 13.3528 6.92695 13.2727C6.8552 13.1721 6.71548 13.1488 6.61487 13.2205L5.29706 14.3366C5.28169 14.3475 5.26716 14.3596 5.25359 14.3727C5.10209 14.519 5.09788 14.7604 5.24418 14.9119C5.25729 14.9255 5.27138 14.9381 5.28636 14.9496C5.45344 15.0778 5.69282 15.0462 5.82101 14.8791ZM6.14461 12.1531L4.46541 12.2915C4.25661 12.319 4.06505 12.172 4.03756 11.9632C4.03509 11.9445 4.03402 11.9257 4.03435 11.9068C4.03802 11.6962 4.2117 11.5285 4.42227 11.5322C4.44114 11.5325 4.45996 11.5342 4.47857 11.5373L6.15234 11.7106C6.27421 11.731 6.35647 11.8464 6.33607 11.9682C6.31983 12.0653 6.24214 12.1403 6.14461 12.1531ZM5.15033 9.52205L6.57456 10.6233C6.65261 10.6832 6.7606 10.6851 6.84068 10.628C6.94129 10.5562 6.96468 10.4165 6.89292 10.3159L5.69291 8.9981C5.68195 8.98273 5.66987 8.9682 5.65676 8.95463C5.51046 8.80313 5.26906 8.79892 5.11756 8.94521C5.10399 8.95832 5.09141 8.97242 5.07992 8.9874C4.95172 9.15448 4.98325 9.39386 5.15033 9.52205ZM9.33902 9.939L9.68622 9.29818C9.72024 9.23541 9.7987 9.21209 9.86147 9.2461C9.86634 9.24874 9.87103 9.25168 9.87552 9.25492C9.94272 9.3034 9.96104 9.39556 9.9175 9.46605L9.53887 10.079C9.50644 10.1315 9.43761 10.1478 9.38512 10.1153C9.32419 10.0727 9.30679 9.99848 9.33902 9.939ZM11.0976 11.1089L10.399 11.3165C10.3341 11.3358 10.294 11.4005 10.3069 11.4738C10.3211 11.5338 10.3813 11.571 10.4413 11.5568L11.1424 11.3911C11.2231 11.3721 11.2753 11.294 11.2621 11.2122C11.2612 11.2067 11.2599 11.2013 11.2584 11.196C11.238 11.1275 11.1661 11.0886 11.0976 11.1089ZM10.1744 13.0401L10.8152 13.3873C10.878 13.4213 10.9013 13.4997 10.8673 13.5625C10.8647 13.5674 10.8617 13.5721 10.8585 13.5766C10.81 13.6438 10.7179 13.6621 10.6474 13.6185L10.0344 13.2399C9.98194 13.2075 9.96567 13.1386 9.99809 13.0862C10.0408 13.0252 10.1149 13.0078 10.1744 13.0401ZM9.00453 14.7987L8.79692 14.1C8.77765 14.0352 8.71288 13.995 8.63963 14.0079C8.57959 14.0221 8.54242 14.0823 8.55661 14.1423L8.7223 14.8435C8.74135 14.9241 8.81948 14.9763 8.90127 14.9631C8.90673 14.9622 8.91213 14.961 8.91744 14.9594C8.98588 14.9391 9.02487 14.8671 9.00453 14.7987ZM7.07337 13.8755L6.72617 14.5163C6.69215 14.5791 6.61369 14.6024 6.55091 14.5684C6.54605 14.5657 6.54136 14.5628 6.53687 14.5595C6.46967 14.5111 6.45135 14.4189 6.49489 14.3484L6.87352 13.7355C6.90594 13.683 6.97478 13.6667 7.02727 13.6991C7.0882 13.7418 7.1056 13.816 7.07337 13.8755ZM5.31478 12.7056L6.01341 12.498C6.07826 12.4787 6.11842 12.4139 6.1055 12.3407C6.09131 12.2806 6.03114 12.2435 5.9711 12.2576L5.26994 12.4233C5.18931 12.4424 5.1371 12.5205 5.15033 12.6023C5.15122 12.6078 5.15245 12.6132 5.15403 12.6185C5.17437 12.6869 5.24634 12.7259 5.31478 12.7056ZM6.23796 10.7744L5.59714 10.4272C5.53437 10.3932 5.51105 10.3147 5.54506 10.252C5.5477 10.2471 5.55065 10.2424 5.55388 10.2379C5.60236 10.1707 5.69452 10.1524 5.76501 10.1959L6.37796 10.5746C6.43045 10.607 6.44672 10.6758 6.41429 10.7283C6.37163 10.7892 6.29744 10.8066 6.23796 10.7744ZM9.96558 10.6067C9.912 10.6373 9.89334 10.7055 9.92741 10.7649C9.96441 10.8215 10.038 10.8415 10.0985 10.8113L10.7511 10.4867C10.815 10.4549 10.841 10.3773 10.8092 10.3134C10.8068 10.3084 10.804 10.3036 10.8009 10.299C10.7548 10.2302 10.6633 10.2087 10.5914 10.2497L9.96558 10.6067ZM10.2311 12.3165C10.2489 12.2505 10.3104 12.2154 10.3699 12.2317L11.0648 12.4218C11.1447 12.4436 11.1942 12.5235 11.1781 12.6048C11.177 12.6102 11.1756 12.6156 11.1738 12.6208C11.1511 12.6885 11.0778 12.725 11.0102 12.7023L10.3192 12.4704C10.255 12.4489 10.2172 12.3828 10.2311 12.3165ZM9.5067 13.6666C9.47613 13.613 9.4079 13.5944 9.34857 13.6285C9.29193 13.6655 9.27195 13.739 9.30209 13.7996L9.62671 14.4521C9.65852 14.516 9.73612 14.5421 9.80004 14.5103C9.805 14.5078 9.80979 14.505 9.81439 14.5019C9.88324 14.4558 9.90476 14.3644 9.86371 14.2924L9.5067 13.6666ZM7.79689 13.9321C7.86294 13.95 7.89799 14.0114 7.88171 14.0709L7.69165 14.7658C7.6698 14.8458 7.5899 14.8952 7.50862 14.8791C7.50319 14.8781 7.49783 14.8766 7.49259 14.8749C7.4249 14.8522 7.38844 14.7789 7.41115 14.7112L7.64303 14.0202C7.66455 13.9561 7.73068 13.9182 7.79689 13.9321ZM6.4468 13.2077C6.50039 13.1772 6.51905 13.1089 6.48497 13.0496C6.44797 12.993 6.37443 12.973 6.31386 13.0031L5.66132 13.3278C5.59739 13.3596 5.57135 13.4372 5.60315 13.5011C5.60562 13.506 5.6084 13.5108 5.61148 13.5154C5.65758 13.5843 5.74904 13.6058 5.82101 13.5647L6.4468 13.2077ZM6.18132 11.4979C6.16347 11.564 6.10203 11.599 6.04252 11.5828L5.34758 11.3927C5.26766 11.3708 5.2182 11.2909 5.23429 11.2097C5.23536 11.2042 5.23679 11.1989 5.23855 11.1936C5.26126 11.1259 5.33455 11.0895 5.40224 11.1122L6.0932 11.3441C6.15734 11.3656 6.19521 11.4317 6.18132 11.4979ZM6.90569 10.1478C6.93626 10.2014 7.00449 10.2201 7.06381 10.186C7.12046 10.149 7.14043 10.0755 7.1103 10.0149L6.78567 9.36236C6.75387 9.29843 6.67627 9.27239 6.61235 9.30419C6.60739 9.30666 6.6026 9.30944 6.598 9.31252C6.52915 9.35862 6.50762 9.45008 6.54868 9.52205L6.90569 10.1478Z"/></g></g></svg>

<svg xmlns="http://www.w3.org/2000/svg" fill="none" viewBox="0 0 32 24"><mask id="PHL_svg__a" width="32" height="24" x="0" y="0" maskUnits="userSpaceOnUse"><path fill="#fff" d="M0 0h32v24H0z"/></mask><g mask="url(#PHL_svg__a)"><path fill="#BF2714" fill-rule="evenodd" d="M0 0v24h32V0H0z" clip-rule="evenodd"/><mask id="PHL_svg__b" width="32" height="24" x="0" y="0" maskUnits="userSpaceOnUse"><path fill="#fff" fill-rule="evenodd" d="M0 0v24h32V0H0z" clip-rule="evenodd"/></mask><g mask="url(#PHL_svg__b)"><path fill="#3D58DB" fill-rule="evenodd" d="M0-2v14h32V-2H0z" clip-rule="evenodd"/></g><path fill="#F7FCFF" fill-rule="evenodd" d="M0 0v24l18-12L0 0z" clip-rule="evenodd"/><mask id="PHL_svg__c" width="18" height="24" x="0" y="0" maskUnits="userSpaceOnUse"><path fill="#fff" fill-rule="evenodd" d="M0 0v24l18-12L0 0z" clip-rule="evenodd"/></mask><g fill="#FECA00" fill-rule="evenodd" clip-rule="evenodd" mask="url(#PHL_svg__c)"><path d="M13.605 10.92l1.276.492.759-.893.02 1.195 1.174.381-1.236.42.082 1.098-.814-.841-1.28.243.756-.968-.737-1.127zm-12 6l1.173.519.862-.92-.083 1.221 1.277.356-1.339.446.185 1.071-.933-.766-1.16.168.652-.942-.634-1.153zm0-12l1.298.478.737-.88.042 1.182 1.152.396L3.62 6.5l.06 1.112-.808-.806-1.286.208.778-.982-.759-1.113zm6.516 9.613a2.5 2.5 0 100-5 2.5 2.5 0 000 5z"/><path d="M7.826 8.24l.134 1.606a.224.224 0 00.443.007l.177-1.6a.38.38 0 10-.754-.013zm-.418.776l.207.699c.02.064.085.105.158.092a.112.112 0 00.083-.135l-.166-.701a.158.158 0 00-.195-.116.13.13 0 00-.087.16zm1.123.728c-.017.06.018.12.085.138a.133.133 0 00.153-.088l.232-.69a.13.13 0 00-.097-.169.158.158 0 00-.183.114l-.19.695zm2.077-.703L9.49 10.276a.224.224 0 00.308.318l1.334-1.01a.38.38 0 10-.524-.543zm-.34 2.62l1.669-.129a.381.381 0 11-.013.754l-1.664-.182a.224.224 0 01.008-.443zm.866 2.659l-1.296-1.13a.224.224 0 00-.319.308l1.072 1.345a.381.381 0 10.543-.524zm-2.682-.351l.099 1.685a.381.381 0 11-.754-.013l.213-1.68a.224.224 0 01.442.008zm-2.631.91l1.101-1.34a.224.224 0 00-.307-.318l-1.318 1.116a.381.381 0 10.524.543zm.324-2.726l-1.68.139a.381.381 0 11.014-.755l1.673.174a.224.224 0 01-.007.442zm-.995-2.63l1.425 1.1a.224.224 0 00.318-.307l-1.2-1.318a.38.38 0 10-.543.524zm4.189.416l.347-.64a.13.13 0 01.19-.044c.067.048.085.14.042.211l-.38.613a.112.112 0 01-.153.036.135.135 0 01-.046-.176zm1.759 1.17l-.699.208a.135.135 0 00-.092.157c.014.06.074.097.134.083l.701-.166a.158.158 0 00.116-.195.13.13 0 00-.16-.087zm-.924 1.931l.641.347a.13.13 0 01.043.19.158.158 0 01-.21.042l-.614-.379a.112.112 0 01-.036-.154.135.135 0 01.176-.046zm-1.17 1.76l-.207-.699a.135.135 0 00-.157-.092.112.112 0 00-.083.134l.165.702a.158.158 0 00.195.116.13.13 0 00.088-.161zm-1.93-.923l-.348.64a.13.13 0 01-.19.044.158.158 0 01-.041-.212l.379-.613a.112.112 0 01.153-.036c.061.043.079.117.046.177zm-1.76-1.17l.7-.208a.135.135 0 00.091-.157.112.112 0 00-.134-.083l-.701.165a.158.158 0 00-.116.195.13.13 0 00.16.088zm.924-1.931l-.64-.348a.13.13 0 01-.044-.189.158.158 0 01.211-.042l.613.379a.112.112 0 01.036.153.135.135 0 01-.176.046zm3.728-.168c-.054.03-.073.099-.039.158a.133.133 0 00.171.046l.653-.324a.13.13 0 00.05-.188.158.158 0 00-.21-.05l-.625.358zm.265 1.71c.018-.066.08-.101.139-.085l.695.19a.158.158 0 01.109.199.13.13 0 01-.164.081l-.69-.232a.133.133 0 01-.089-.153zm-.724 1.35a.112.112 0 00-.158-.038.133.133 0 00-.047.17l.325.653a.13.13 0 00.187.05.158.158 0 00.05-.21l-.357-.625zm-1.71.265c.066.018.101.08.085.139l-.19.695a.158.158 0 01-.2.109.13.13 0 01-.08-.164l.231-.69a.133.133 0 01.154-.089zm-1.35-.724c.053-.03.072-.099.038-.158a.133.133 0 00-.171-.047l-.653.325a.13.13 0 00-.05.188.16.16 0 00.21.049l.626-.357zm-.266-1.71c-.018.066-.079.101-.138.085l-.695-.19a.158.158 0 01-.11-.2.13.13 0 01.164-.08l.691.231a.133.133 0 01.088.154zm.725-1.35c.03.053.098.072.158.038a.133.133 0 00.046-.171l-.324-.653a.13.13 0 00-.188-.05.158.158 0 00-.05.21l.358.626z"/></g></g></svg>
